src/16/actions/archive-remove.svg

<svg viewBox="0 0 16 16" xmlns="http://www.w3.org/2000/svg"><style type="text/css" id="current-color-scheme">.ColorScheme-Text{color:#5d656b;}.ColorScheme-NegativeText{color:#da4453;}</style><path d="m2 2v12h7v-1h-6v-10h5v1h1v-1h4v6h1v-7zm6 2h-1v1h1zm0 1v1h1v-1zm0 1h-1v1 1h2v-1h-1z" style="fill:currentColor;fill-opacity:1;stroke:none" class="ColorScheme-Text"/><path d="m9.0000005 11h4.9999995v1h-4.9999995z" style="fill:currentColor;fill-opacity:1;stroke:none" class="ColorScheme-NegativeText"/></svg>

<svg viewBox="0 0 16 16" xmlns="http://www.w3.org/2000/svg"><path d="M2 2v12h7v-1H3V3h5v1h1V3h4v6h1V2zm6 2H7v1h1zm0 1v1h1V5zm0 1H7v2h2V7H8z" fill="currentColor" color="#5d656b"/><path d="M9 11h5v1H9z" fill="currentColor" color="#da4453"/></svg>
